flaticon/gastronomy/glass-3.svg

<svg xmlns="http://www.w3.org/2000/svg" width="32" height="32" viewBox="0 0 24 24">
    <path d="M 22.746094 0.078125 C 22.535156 -0.0625 22.25 -0.0078125 22.109375 0.203125 L 20.464844 2.660156 C 18.75 1.925781 15.921875 1.519531 13.152344 1.519531 C 11.332031 1.519531 9.585938 1.691406 8.058594 2.011719 C 7.355469 1.039062 6.214844 0.398438 4.921875 0.398438 C 2.789062 0.398438 1.050781 2.136719 1.050781 4.273438 C 1.050781 6.40625 2.789062 8.144531 4.921875 8.144531 C 5.351562 8.144531 5.773438 8.070312 6.179688 7.929688 C 6.535156 8.429688 6.921875 8.953125 7.328125 9.488281 C 7.367188 9.578125 7.429688 9.65625 7.515625 9.734375 C 9.050781 11.746094 10.785156 13.839844 11.847656 15.105469 C 12.128906 15.4375 12.507812 15.664062 12.921875 15.757812 L 12.921875 20.792969 C 11.453125 20.828125 7.875 21.042969 7.875 22.394531 C 7.875 23.921875 12.460938 24 13.382812 24 C 14.300781 24 18.886719 23.921875 18.886719 22.394531 C 18.886719 21.042969 15.308594 20.828125 13.839844 20.792969 L 13.839844 15.742188 C 14.25 15.636719 14.617188 15.40625 14.886719 15.066406 C 16.507812 13.042969 17.851562 11.289062 18.929688 9.808594 C 19.050781 9.707031 19.132812 9.59375 19.171875 9.472656 C 20.957031 6.984375 21.929688 5.3125 22.074219 4.476562 C 22.089844 4.410156 22.097656 4.339844 22.097656 4.269531 C 22.097656 3.828125 21.800781 3.433594 21.28125 3.089844 L 22.871094 0.714844 C 23.011719 0.503906 22.957031 0.21875 22.746094 0.078125 Z M 8.519531 2.847656 C 9.910156 2.582031 11.53125 2.433594 13.152344 2.433594 C 16.261719 2.433594 18.613281 2.929688 19.941406 3.4375 L 18.746094 5.226562 C 17.457031 5.464844 15.625 5.648438 13.152344 5.648438 C 11.492188 5.648438 9.941406 5.558594 8.625 5.390625 C 8.636719 5.359375 8.640625 5.328125 8.648438 5.296875 C 8.679688 5.179688 8.707031 5.058594 8.726562 4.9375 C 8.738281 4.886719 8.746094 4.835938 8.753906 4.785156 C 8.777344 4.613281 8.792969 4.445312 8.792969 4.273438 C 8.792969 4.144531 8.785156 4.019531 8.773438 3.894531 C 8.765625 3.820312 8.753906 3.746094 8.742188 3.671875 C 8.734375 3.625 8.730469 3.578125 8.71875 3.535156 C 8.703125 3.4375 8.675781 3.347656 8.652344 3.253906 C 8.644531 3.230469 8.640625 3.207031 8.632812 3.183594 C 8.605469 3.082031 8.570312 2.980469 8.53125 2.882812 C 8.527344 2.875 8.523438 2.859375 8.519531 2.847656 Z M 18.664062 8.601562 C 18.453125 8.492188 18.167969 8.386719 17.792969 8.296875 L 19.296875 6.054688 C 19.757812 5.957031 20.1875 5.839844 20.566406 5.703125 C 20.164062 6.40625 19.542969 7.363281 18.664062 8.601562 Z M 17.238281 9.125 C 17.535156 9.171875 17.78125 9.226562 17.964844 9.277344 C 17.734375 9.355469 17.398438 9.429688 16.984375 9.503906 Z M 15.773438 9.664062 C 15.085938 9.730469 14.285156 9.777344 13.382812 9.777344 C 11.261719 9.777344 9.421875 9.523438 8.582031 9.28125 C 9.382812 9.070312 11.113281 8.859375 13.382812 8.859375 C 14.488281 8.859375 15.449219 8.910156 16.222656 8.988281 Z M 16.804688 8.121094 C 15.964844 8.007812 14.851562 7.941406 13.382812 7.941406 C 10.085938 7.941406 8.53125 8.261719 7.824219 8.625 C 7.441406 8.113281 7.074219 7.613281 6.742188 7.140625 L 6.71875 7.105469 C 6.695312 7.074219 6.675781 7.042969 6.652344 7.011719 C 6.570312 6.890625 6.484375 6.769531 6.40625 6.648438 C 6.375 6.605469 6.347656 6.5625 6.316406 6.515625 C 6.238281 6.398438 6.160156 6.28125 6.085938 6.167969 C 6.066406 6.136719 6.046875 6.105469 6.027344 6.074219 C 5.949219 5.957031 5.878906 5.84375 5.8125 5.734375 C 6.078125 5.824219 6.382812 5.910156 6.71875 5.988281 C 6.90625 6.03125 7.097656 6.074219 7.304688 6.113281 L 7.300781 6.121094 L 7.917969 6.214844 L 8.25 6.265625 L 8.253906 6.261719 C 9.664062 6.457031 11.34375 6.5625 13.152344 6.5625 C 14.136719 6.5625 16.167969 6.527344 18.046875 6.269531 Z M 4.921875 7.226562 C 3.292969 7.226562 1.96875 5.898438 1.96875 4.269531 C 1.96875 2.640625 3.292969 1.316406 4.921875 1.316406 C 6 1.316406 6.9375 1.898438 7.457031 2.761719 C 7.589844 2.984375 7.691406 3.222656 7.761719 3.472656 C 7.765625 3.488281 7.769531 3.5 7.773438 3.515625 C 7.800781 3.617188 7.820312 3.722656 7.839844 3.828125 C 7.84375 3.851562 7.847656 3.878906 7.851562 3.90625 C 7.867188 4.027344 7.875 4.148438 7.875 4.269531 C 7.875 4.417969 7.859375 4.566406 7.839844 4.714844 C 7.832031 4.75 7.824219 4.785156 7.820312 4.820312 C 7.792969 4.964844 7.757812 5.109375 7.707031 5.25 C 7.566406 5.226562 7.4375 5.203125 7.3125 5.175781 C 7.230469 5.160156 7.15625 5.144531 7.078125 5.128906 C 7.042969 5.121094 7.003906 5.109375 6.964844 5.101562 C 6.878906 5.082031 6.796875 5.0625 6.714844 5.042969 C 6.699219 5.039062 6.679688 5.03125 6.660156 5.027344 C 6.578125 5.007812 6.496094 4.984375 6.421875 4.960938 C 6.410156 4.957031 6.402344 4.957031 6.390625 4.953125 C 6.316406 4.929688 6.242188 4.910156 6.175781 4.886719 C 6.167969 4.882812 6.15625 4.878906 6.148438 4.875 C 6.082031 4.855469 6.023438 4.835938 5.96875 4.8125 C 5.953125 4.808594 5.9375 4.800781 5.921875 4.796875 C 5.878906 4.777344 5.835938 4.761719 5.792969 4.746094 C 5.761719 4.730469 5.730469 4.714844 5.699219 4.703125 C 5.683594 4.695312 5.664062 4.6875 5.648438 4.679688 C 5.183594 4.457031 5.125 4.285156 5.125 4.28125 L 5.125 4.285156 C 5.125 4.277344 5.121094 4.273438 5.121094 4.269531 L 5.117188 4.269531 C 5.050781 4.046875 4.828125 3.921875 4.601562 3.964844 C 4.4375 3.996094 4.3125 4.121094 4.257812 4.269531 L 4.203125 4.269531 C 4.203125 4.59375 4.34375 5.15625 5.269531 6.59375 C 5.273438 6.601562 5.277344 6.609375 5.28125 6.617188 C 5.289062 6.625 5.296875 6.636719 5.304688 6.648438 C 5.402344 6.800781 5.507812 6.964844 5.628906 7.140625 C 5.398438 7.195312 5.160156 7.226562 4.921875 7.226562 Z M 17.898438 22.394531 C 17.488281 22.667969 15.945312 23.082031 13.382812 23.082031 C 10.816406 23.082031 9.273438 22.667969 8.867188 22.394531 C 9.25 22.136719 10.632812 21.757812 12.921875 21.710938 L 12.921875 22.230469 C 12.921875 22.484375 13.128906 22.6875 13.382812 22.6875 C 13.636719 22.6875 13.839844 22.484375 13.839844 22.230469 L 13.839844 21.710938 C 16.128906 21.757812 17.511719 22.136719 17.898438 22.394531 Z M 14.167969 14.496094 C 13.972656 14.742188 13.679688 14.882812 13.367188 14.886719 C 13.363281 14.886719 13.355469 14.886719 13.351562 14.886719 C 13.042969 14.886719 12.75 14.753906 12.550781 14.515625 C 11.703125 13.503906 10.425781 11.964844 9.164062 10.363281 C 10.722656 10.667969 12.773438 10.695312 13.382812 10.695312 C 13.964844 10.695312 14.554688 10.671875 15.121094 10.636719 L 13.105469 13.648438 C 12.964844 13.859375 13.019531 14.144531 13.230469 14.285156 C 13.308594 14.335938 13.398438 14.363281 13.484375 14.363281 C 13.632812 14.363281 13.777344 14.292969 13.867188 14.160156 L 16.296875 10.53125 C 16.601562 10.492188 16.894531 10.453125 17.164062 10.40625 C 17.238281 10.390625 17.304688 10.375 17.375 10.363281 C 16.492188 11.546875 15.429688 12.917969 14.167969 14.496094 Z M 21.179688 4.269531 C 21.179688 4.429688 20.824219 4.671875 20.0625 4.910156 L 20.777344 3.839844 C 21.039062 4 21.179688 4.152344 21.179688 4.269531 Z M 21.179688 4.269531"/>
</svg>

<svg xmlns="http://www.w3.org/2000/svg" width="32" height="32" viewBox="0 0 24 24">
    <path d="M22.746.078a.459.459 0 0 0-.637.125L20.465 2.66c-1.715-.734-4.543-1.14-7.313-1.14-1.82 0-3.566.171-5.093.492A3.867 3.867 0 0 0 4.922.398 3.879 3.879 0 0 0 1.05 4.273a3.878 3.878 0 0 0 3.87 3.872c.43 0 .852-.075 1.259-.215.355.5.742 1.023 1.148 1.558.04.09.102.168.188.246 1.535 2.012 3.27 4.106 4.332 5.371.28.332.66.56 1.074.653v5.035c-1.469.035-5.047.25-5.047 1.602 0 1.527 4.586 1.605 5.508 1.605.918 0 5.504-.078 5.504-1.605 0-1.352-3.578-1.567-5.047-1.602v-5.05c.41-.106.777-.337 1.047-.677A146.369 146.369 0 0 0 18.93 9.81a.746.746 0 0 0 .242-.336c1.785-2.489 2.758-4.16 2.902-4.996a.91.91 0 0 0 .024-.207c0-.442-.297-.836-.817-1.18l1.59-2.375a.459.459 0 0 0-.125-.637zM8.52 2.848c1.39-.266 3.011-.414 4.632-.414 3.11 0 5.461.496 6.79 1.003l-1.196 1.79c-1.289.238-3.121.421-5.594.421-1.66 0-3.21-.09-4.527-.257.012-.032.016-.063.023-.094.032-.117.059-.238.079-.36a3.761 3.761 0 0 0 .066-.664c0-.128-.008-.253-.02-.378-.007-.075-.02-.149-.03-.223-.009-.047-.013-.094-.024-.137-.016-.098-.043-.187-.067-.281-.007-.024-.011-.047-.02-.07a2.722 2.722 0 0 0-.1-.301c-.005-.008-.009-.024-.012-.035zm10.144 5.754a3.867 3.867 0 0 0-.871-.305l1.504-2.242c.46-.098.89-.215 1.27-.352-.403.703-1.024 1.66-1.903 2.899zm-1.426.523c.297.047.543.102.727.152-.23.078-.567.153-.98.227zm-1.465.54c-.687.065-1.488.112-2.39.112-2.121 0-3.961-.254-4.801-.496.8-.21 2.531-.422 4.8-.422 1.106 0 2.067.051 2.84.13zm1.032-1.544c-.84-.113-1.953-.18-3.422-.18-3.297 0-4.852.32-5.559.684a62.358 62.358 0 0 1-1.082-1.484l-.023-.036c-.024-.03-.043-.062-.067-.093-.082-.121-.168-.242-.246-.364-.031-.043-.058-.085-.09-.132a52.801 52.801 0 0 1-.23-.348l-.059-.094a9.398 9.398 0 0 1-.215-.34c.266.09.57.176.907.254.187.043.379.086.586.125l-.004.008.617.094.332.05.004-.003c1.41.195 3.09.3 4.898.3.985 0 3.016-.035 4.895-.292zM4.922 7.227a2.956 2.956 0 0 1 0-5.91 2.957 2.957 0 0 1 2.84 2.156c.004.015.008.027.011.043.028.101.047.207.067.312l.012.078a2.836 2.836 0 0 1-.032.914c-.027.145-.062.29-.113.43a7.98 7.98 0 0 1-.394-.074l-.235-.047c-.035-.008-.074-.02-.113-.027l-.25-.059c-.016-.004-.035-.012-.055-.016a3.481 3.481 0 0 1-.238-.066c-.012-.004-.02-.004-.031-.008-.075-.023-.149-.043-.215-.066l-.028-.012a1.6 1.6 0 0 1-.18-.063c-.015-.003-.03-.011-.046-.015a1.761 1.761 0 0 0-.129-.05c-.031-.017-.063-.032-.094-.044l-.05-.023c-.465-.223-.524-.395-.524-.399v.004c0-.008-.004-.012-.004-.015h-.004a.444.444 0 0 0-.515-.305.469.469 0 0 0-.344.305h-.055c0 .324.14.886 1.067 2.324l.011.023c.008.008.016.02.024.031.097.153.203.317.324.493-.23.054-.469.086-.707.086zm12.976 15.168c-.41.273-1.953.687-4.515.687-2.567 0-4.11-.414-4.516-.687.383-.258 1.766-.637 4.055-.684v.52a.458.458 0 0 0 .918 0v-.52c2.289.047 3.672.426 4.058.684zm-3.73-7.899a1.034 1.034 0 0 1-.8.39h-.016a1.04 1.04 0 0 1-.801-.37 182.413 182.413 0 0 1-3.387-4.153c1.559.305 3.61.332 4.219.332.582 0 1.172-.023 1.738-.058l-2.016 3.011a.459.459 0 1 0 .762.512l2.43-3.629c.305-.039.598-.078.867-.125.074-.015.14-.031.211-.043a157.744 157.744 0 0 1-3.207 4.133zM21.18 4.27c0 .16-.356.402-1.117.64l.714-1.07c.262.16.403.312.403.43zm0 0"/>
</svg>
